sec_certs_page/static/img/muni_light.svg

<?xml version="1.0" encoding="UTF-8" standalone="no"?>
<svg
   version="1.0"
   width="71.187737mm"
   height="18.271067mm"
   id="svg1"
   xmlns="http://www.w3.org/2000/svg"
   xmlns:svg="http://www.w3.org/2000/svg">
  <defs
     id="defs1">
    <pattern
       id="EMFhbasepattern"
       patternUnits="userSpaceOnUse"
       width="6"
       height="6"
       x="0"
       y="0" />
  </defs>
  <path
     style="fill:#ffffff;fill-rule:nonzero;fill-opacity:1;stroke:none;"
     d="  M 0,0.66666667   C 4.3333333,0.66666667 4.3333333,0.66666667 4.3333333,0.66666667   C 4.3333333,28.666667 4.3333333,28.666667 4.3333333,28.666667   C 0,28.666667 0,28.666667 0,28.666667   z  M 4.3333333,0.66666667   C 6,0.66666667 6,0.66666667 6,0.66666667   C 8.6666667,28.666667 8.6666667,28.666667 8.6666667,28.666667   C 7.3333333,28.666667 7.3333333,28.666667 7.3333333,28.666667   z  M 11.666667,0.66666667   C 13,0.66666667 13,0.66666667 13,0.66666667   C 10.333333,28.666667 10.333333,28.666667 10.333333,28.666667   C 9,28.666667 9,28.666667 9,28.666667   z  M 13.333333,0.66666667   C 17.666667,0.66666667 17.666667,0.66666667 17.666667,0.66666667   C 17.666667,28.666667 17.666667,28.666667 17.666667,28.666667   C 13.333333,28.666667 13.333333,28.666667 13.333333,28.666667   z  M 36.666667,0.66666667   C 34.666667,16.333333 34.666667,16.333333 34.666667,16.333333   C 39,16.333333 39,16.333333 39,16.333333   C 37,0.66666667 37,0.66666667 37,0.66666667   C 41,0.66666667 41,0.66666667 41,0.66666667   C 45,28.666667 45,28.666667 45,28.666667   C 40.666667,28.666667 40.666667,28.666667 40.666667,28.666667   C 39.333333,20.333333 39.333333,20.333333 39.333333,20.333333   C 34,20.333333 34,20.333333 34,20.333333   C 33,28.666667 33,28.666667 33,28.666667   C 28.666667,28.666667 28.666667,28.666667 28.666667,28.666667   C 32.666667,0.66666667 32.666667,0.66666667 32.666667,0.66666667   z  M 57.666667,22.333333   C 57.666667,20.666667 57.666667,20.666667 57.666667,20.666667   C 62,20.666667 62,20.666667 62,20.666667   C 62,22 62,22 62,22   C 62,23.666667 63.333333,24.666667 64.666667,24.666667   C 66,24.666667 67.333333,23.666667 67.333333,22   C 67.333333,19.333333 67.333333,19.333333 67.333333,19.333333   C 67.333333,17.666667 65.666667,17 64,16.666667   C 60.333333,16 57.666667,13.666667 57.666667,10   C 57.666667,7 57.666667,7 57.666667,7   C 57.666667,3.3333333 61,0.33333333 64.666667,0.33333333   C 68.333333,0.33333333 71.666667,3.3333333 71.666667,7   C 71.666667,8.6666667 71.666667,8.6666667 71.666667,8.6666667   C 67.333333,8.6666667 67.333333,8.6666667 67.333333,8.6666667   C 67.333333,7.3333333 67.333333,7.3333333 67.333333,7.3333333   C 67.333333,5.6666667 66,4.6666667 64.666667,4.6666667   C 63.333333,4.6666667 62,5.6666667 62,7.3333333   C 62,10 62,10 62,10   C 62,11.666667 63.666667,12.333333 65.333333,12.666667   C 69,13 71.666667,15.666667 71.666667,19.333333   C 71.666667,22.333333 71.666667,22.333333 71.666667,22.333333   C 71.666667,26 68.333333,29 64.666667,29   C 61,29 57.666667,26 57.666667,22.333333   z  M 92.666667,0.66666667   C 90.666667,16.333333 90.666667,16.333333 90.666667,16.333333   C 95,16.333333 95,16.333333 95,16.333333   C 93,0.66666667 93,0.66666667 93,0.66666667   C 97,0.66666667 97,0.66666667 97,0.66666667   C 101,28.666667 101,28.666667 101,28.666667   C 96.666667,28.666667 96.666667,28.666667 96.666667,28.666667   C 95.333333,20.333333 95.333333,20.333333 95.333333,20.333333   C 90,20.333333 90,20.333333 90,20.333333   C 89,28.666667 89,28.666667 89,28.666667   C 84.666667,28.666667 84.666667,28.666667 84.666667,28.666667   C 88.666667,0.66666667 88.666667,0.66666667 88.666667,0.66666667   z  M 122,0.66666667   C 125.33333,0.66666667 128.66667,3.6666667 128.66667,7.3333333   C 128.66667,11 128.66667,11 128.66667,11   C 128.66667,13.333333 127.33333,15.333333 125.33333,16.666667   C 130,28.666667 130,28.666667 130,28.666667   C 125,28.666667 125,28.666667 125,28.666667   C 121,17.666667 121,17.666667 121,17.666667   C 119,17.666667 119,17.666667 119,17.666667   C 119,28.666667 119,28.666667 119,28.666667   C 114.66667,28.666667 114.66667,28.666667 114.66667,28.666667   C 114.66667,0.66666667 114.66667,0.66666667 114.66667,0.66666667   z  M 124.33333,10   C 124.33333,7.6666667 124.33333,7.6666667 124.33333,7.6666667   C 124.33333,5.6666667 122.66667,4.6666667 121,4.6666667   C 119,4.6666667 119,4.6666667 119,4.6666667   C 119,13.333333 119,13.333333 119,13.333333   C 121,13.333333 121,13.333333 121,13.333333   C 123,13.333333 124.33333,12.666667 124.33333,10   z  M 140.33333,0.66666667   C 145,0.66666667 145,0.66666667 145,0.66666667   C 148.66667,12 148.66667,12 148.66667,12   C 152.33333,0.66666667 152.33333,0.66666667 152.33333,0.66666667   C 157,0.66666667 157,0.66666667 157,0.66666667   C 151,18 151,18 151,18   C 151,28.666667 151,28.666667 151,28.666667   C 146.66667,28.666667 146.66667,28.666667 146.66667,28.666667   C 146.66667,18 146.66667,18 146.66667,18   z  M 175.33333,0.66666667   C 175.33333,28.666667 175.33333,28.666667 175.33333,28.666667   C 171,28.666667 171,28.666667 171,28.666667   C 171,0.66666667 171,0.66666667 171,0.66666667   z  M 180.66667,0.66666667   C 185.33333,0.66666667 185.33333,0.66666667 185.33333,0.66666667   C 180,14.333333 180,14.333333 180,14.333333   C 185.66667,28.666667 185.66667,28.666667 185.66667,28.666667   C 180.66667,28.666667 180.66667,28.666667 180.66667,28.666667   C 175.33333,14.666667 175.33333,14.666667 175.33333,14.666667   z  M 6,40.666667   C 6,62 6,62 6,62   C 6,63.666667 7.3333333,64.666667 8.6666667,64.666667   C 10,64.666667 11.333333,63.666667 11.333333,62   C 11.333333,40.666667 11.333333,40.666667 11.333333,40.666667   C 15.666667,40.666667 15.666667,40.666667 15.666667,40.666667   C 15.666667,62.333333 15.666667,62.333333 15.666667,62.333333   C 15.666667,66 12.333333,69 8.6666667,69   C 5,69 1.6666667,66 1.6666667,62.333333   C 1.6666667,40.666667 1.6666667,40.666667 1.6666667,40.666667   z  M 33.666667,40.666667   C 33.666667,68.666667 33.666667,68.666667 33.666667,68.666667   C 29.333333,68.666667 29.333333,68.666667 29.333333,68.666667   C 29.333333,40.666667 29.333333,40.666667 29.333333,40.666667   z  M 35.333333,40.666667   C 39.666667,68.666667 39.666667,68.666667 39.666667,68.666667   C 38,68.666667 38,68.666667 38,68.666667   C 34,40.666667 34,40.666667 34,40.666667   z  M 44.333333,40.666667   C 44.333333,68.666667 44.333333,68.666667 44.333333,68.666667   C 39.666667,68.666667 39.666667,68.666667 39.666667,68.666667   C 39.666667,40.666667 39.666667,40.666667 39.666667,40.666667   z  M 62.666667,67   C 62.666667,42.333333 62.666667,42.333333 62.666667,42.333333   C 58.666667,42.333333 58.666667,42.333333 58.666667,42.333333   C 58.666667,40.666667 58.666667,40.666667 58.666667,40.666667   C 70.666667,40.666667 70.666667,40.666667 70.666667,40.666667   C 70.666667,42.333333 70.666667,42.333333 70.666667,42.333333   C 67,42.333333 67,42.333333 67,42.333333   C 67,67 67,67 67,67   C 70.666667,67 70.666667,67 70.666667,67   C 70.666667,68.666667 70.666667,68.666667 70.666667,68.666667   C 58.666667,68.666667 58.666667,68.666667 58.666667,68.666667   C 58.666667,67 58.666667,67 58.666667,67   z  M 89,40.666667   C 92.666667,68.666667 92.666667,68.666667 92.666667,68.666667   C 88.666667,68.666667 88.666667,68.666667 88.666667,68.666667   C 84.666667,40.666667 84.666667,40.666667 84.666667,40.666667   z  M 101,40.666667   C 97,68.666667 97,68.666667 97,68.666667   C 93,68.666667 93,68.666667 93,68.666667   C 96.333333,40.666667 96.333333,40.666667 96.333333,40.666667   z  M 114.33333,40.666667   C 128,40.666667 128,40.666667 128,40.666667   C 128,44.666667 128,44.666667 128,44.666667   C 119,44.666667 119,44.666667 119,44.666667   C 119,52 119,52 119,52   C 127.33333,52 127.33333,52 127.33333,52   C 127.33333,56 127.33333,56 127.33333,56   C 119,56 119,56 119,56   C 119,64.666667 119,64.666667 119,64.666667   C 128,64.666667 128,64.666667 128,64.666667   C 128,68.666667 128,68.666667 128,68.666667   C 114.33333,68.666667 114.33333,68.666667 114.33333,68.666667   z  M 150,40.666667   C 153.33333,40.666667 156.66667,43.666667 156.66667,47.333333   C 156.66667,51 156.66667,51 156.66667,51   C 156.66667,53.333333 155.33333,55.333333 153.33333,56.666667   C 158,68.666667 158,68.666667 158,68.666667   C 153,68.666667 153,68.666667 153,68.666667   C 149,57.666667 149,57.666667 149,57.666667   C 147,57.666667 147,57.666667 147,57.666667   C 147,68.666667 147,68.666667 147,68.666667   C 142.66667,68.666667 142.66667,68.666667 142.66667,68.666667   C 142.66667,40.666667 142.66667,40.666667 142.66667,40.666667   z  M 152.33333,50   C 152.33333,47.666667 152.33333,47.666667 152.33333,47.666667   C 152.33333,45.666667 150.66667,44.666667 149,44.666667   C 147,44.666667 147,44.666667 147,44.666667   C 147,53.333333 147,53.333333 147,53.333333   C 149,53.333333 149,53.333333 149,53.333333   C 151,53.333333 152.33333,52.666667 152.33333,50   z  M 169.66667,62.333333   C 169.66667,60.666667 169.66667,60.666667 169.66667,60.666667   C 174,60.666667 174,60.666667 174,60.666667   C 174,62 174,62 174,62   C 174,63.666667 175.33333,64.666667 176.66667,64.666667   C 178,64.666667 179.33333,63.666667 179.33333,62   C 179.33333,59.333333 179.33333,59.333333 179.33333,59.333333   C 179.33333,57.666667 177.66667,57 176,56.666667   C 172.33333,56 169.66667,53.666667 169.66667,50   C 169.66667,47 169.66667,47 169.66667,47   C 169.66667,43.333333 173,40.333333 176.66667,40.333333   C 180.33333,40.333333 183.66667,43.333333 183.66667,47   C 183.66667,48.666667 183.66667,48.666667 183.66667,48.666667   C 179.33333,48.666667 179.33333,48.666667 179.33333,48.666667   C 179.33333,47.333333 179.33333,47.333333 179.33333,47.333333   C 179.33333,45.666667 178,44.666667 176.66667,44.666667   C 175.33333,44.666667 174,45.666667 174,47.333333   C 174,50 174,50 174,50   C 174,51.666667 175.66667,52.333333 177.33333,52.666667   C 181,53 183.66667,55.666667 183.66667,59.333333   C 183.66667,62.333333 183.66667,62.333333 183.66667,62.333333   C 183.66667,66 180.33333,69 176.66667,69   C 173,69 169.66667,66 169.66667,62.333333   z  M 202.66667,67   C 202.66667,42.333333 202.66667,42.333333 202.66667,42.333333   C 198.66667,42.333333 198.66667,42.333333 198.66667,42.333333   C 198.66667,40.666667 198.66667,40.666667 198.66667,40.666667   C 210.66667,40.666667 210.66667,40.666667 210.66667,40.666667   C 210.66667,42.333333 210.66667,42.333333 210.66667,42.333333   C 207,42.333333 207,42.333333 207,42.333333   C 207,67 207,67 207,67   C 210.66667,67 210.66667,67 210.66667,67   C 210.66667,68.666667 210.66667,68.666667 210.66667,68.666667   C 198.66667,68.666667 198.66667,68.666667 198.66667,68.666667   C 198.66667,67 198.66667,67 198.66667,67   z  M 224.33333,44.666667   C 224.33333,40.666667 224.33333,40.666667 224.33333,40.666667   C 241.33333,40.666667 241.33333,40.666667 241.33333,40.666667   C 241.33333,44.666667 241.33333,44.666667 241.33333,44.666667   C 235,44.666667 235,44.666667 235,44.666667   C 235,68.666667 235,68.666667 235,68.666667   C 230.66667,68.666667 230.66667,68.666667 230.66667,68.666667   C 230.66667,44.666667 230.66667,44.666667 230.66667,44.666667   z  M 252.33333,40.666667   C 257,40.666667 257,40.666667 257,40.666667   C 260.66667,52 260.66667,52 260.66667,52   C 264.33333,40.666667 264.33333,40.666667 264.33333,40.666667   C 269,40.666667 269,40.666667 269,40.666667   C 263,58 263,58 263,58   C 263,68.666667 263,68.666667 263,68.666667   C 258.66667,68.666667 258.66667,68.666667 258.66667,68.666667   C 258.66667,58 258.66667,58 258.66667,58   z "
     id="path1" />
</svg>

<svg xmlns="http://www.w3.org/2000/svg" width="269.056" height="69.056" version="1.0">
  <path d="M0 .667h4.333v28H0zm4.333 0H6l2.667 28H7.333zm7.334 0H13l-2.667 28H9zm1.666 0h4.334v28h-4.334zm23.334 0-2 15.666H39L37 .667h4l4 28h-4.333l-1.334-8.334H34l-1 8.334h-4.333l4-28zm21 21.666v-1.666H62V22c0 1.667 1.333 2.667 2.667 2.667 1.333 0 2.666-1 2.666-2.667v-2.667c0-1.666-1.666-2.333-3.333-2.666-3.667-.667-6.333-3-6.333-6.667V7c0-3.667 3.333-6.667 7-6.667 3.666 0 7 3 7 6.667v1.667h-4.334V7.333c0-1.666-1.333-2.666-2.666-2.666-1.334 0-2.667 1-2.667 2.666V10c0 1.667 1.667 2.333 3.333 2.667 3.667.333 6.334 3 6.334 6.666v3c0 3.667-3.334 6.667-7 6.667-3.667 0-7-3-7-6.667zm35-21.666-2 15.666H95L93 .667h4l4 28h-4.333l-1.334-8.334H90l-1 8.334h-4.333l4-28zm29.333 0c3.333 0 6.667 3 6.667 6.666V11c0 2.333-1.334 4.333-3.334 5.667l4.667 12h-5l-4-11h-2v11h-4.333v-28zM124.333 10V7.667c0-2-1.666-3-3.333-3h-2v8.666h2c2 0 3.333-.666 3.333-3.333zm16-9.333H145L148.667 12 152.333.667H157L151 18v10.667h-4.333V18zm35 0v28H171v-28zm5.334 0h4.666L180 14.333l5.667 14.334h-5l-5.334-14zM6 40.667V62c0 1.667 1.333 2.667 2.667 2.667 1.333 0 2.666-1 2.666-2.667V40.667h4.334v21.666c0 3.667-3.334 6.667-7 6.667-3.667 0-7-3-7-6.667V40.667zm27.667 0v28h-4.334v-28zm1.666 0 4.334 28H38l-4-28zm9 0v28h-4.666v-28zM62.667 67V42.333h-4v-1.666h12v1.666H67V67h3.667v1.667h-12V67zM89 40.667l3.667 28h-4l-4-28zm12 0-4 28h-4l3.333-28zm13.333 0H128v4h-9V52h8.333v4H119v8.667h9v4h-13.667zm35.667 0c3.333 0 6.667 3 6.667 6.666V51c0 2.333-1.334 4.333-3.334 5.667l4.667 12h-5l-4-11h-2v11h-4.333v-28zM152.333 50v-2.333c0-2-1.666-3-3.333-3h-2v8.666h2c2 0 3.333-.666 3.333-3.333zm17.334 12.333v-1.666H174V62c0 1.667 1.333 2.667 2.667 2.667 1.333 0 2.666-1 2.666-2.667v-2.667c0-1.666-1.666-2.333-3.333-2.666-3.667-.667-6.333-3-6.333-6.667v-3c0-3.667 3.333-6.667 7-6.667 3.666 0 7 3 7 6.667v1.667h-4.334v-1.334c0-1.666-1.333-2.666-2.666-2.666-1.334 0-2.667 1-2.667 2.666V50c0 1.667 1.667 2.333 3.333 2.667 3.667.333 6.334 3 6.334 6.666v3c0 3.667-3.334 6.667-7 6.667-3.667 0-7-3-7-6.667zm33 4.667V42.333h-4v-1.666h12v1.666H207V67h3.667v1.667h-12V67zm21.666-22.333v-4h17v4H235v24h-4.333v-24zm28-4H257L260.667 52l3.666-11.333H269L263 58v10.667h-4.333V58z" style="fill:#fff;fill-rule:nonzero;fill-opacity:1;stroke:none"/>
</svg>
